src/img/footer-social/facebook.svg

<svg width="32" height="32" viewBox="0 0 32 32" fill="none" xmlns="http://www.w3.org/2000/svg">
<rect width="32" height="32" rx="6" fill="white"/>
<path d="M4 0C1.79086 0 0 1.79086 0 4V28C0 30.2091 1.79086 32 4 32H17.042V19.6391H12.876V14.593H17.042V10.3552C17.042 7.27315 19.5404 4.77469 22.6224 4.77469H26.9777V9.31225H23.8613C22.882 9.31225 22.088 10.1062 22.088 11.0855V14.5931H26.8994L26.2344 19.6391H22.088V32H28C30.2091 32 32 30.2091 32 28V4C32 1.79086 30.2091 0 28 0H4Z" fill="#3A559F"/>
</svg>

<svg width="32" height="32" fill="none" xmlns="http://www.w3.org/2000/svg"><rect width="32" height="32" rx="6" fill="#fff"/><path d="M4 0a4 4 0 00-4 4v24a4 4 0 004 4h13.042V19.64h-4.166v-5.047h4.166v-4.238a5.58 5.58 0 015.58-5.58h4.356v4.537H23.86c-.979 0-1.773.794-1.773 1.774v3.507h4.811l-.665 5.046h-4.146V32H28a4 4 0 004-4V4a4 4 0 00-4-4H4z" fill="#3A559F"/></svg>
